X:105
T:La Montagnarde
C:J.-P. Daudonnet
M:3/8
L:1/16
K:G
Bc|d2d2d2|~B2GBAB|cdecAc|~B2GGBc|\
d2Gddd|~B2GBAB|cBcd(3cBA|G2B2c2|
d2BdGd|~B2GBAB|cdecAc|~B2G2Bc|\
d2Gddd|~B2GBAB|cBcd(3cBA|G2~G2FG||
|:A2~A2EA|B2GBAB|cdecAc|~B2~G2FG|\
A2~A2EA|B2GBAB|cB{c}dcBA|1 G2GGFG:|2 G2B2c2||

